X: 26
M: 2/2
L: 1/4
K: Ddor
dA de | (f>g) ff |\
ed (d^c) | d3 :|\
|: d |\
(e>d) (e/f/)g | (c>d) cc |
ff (g/a/)(g/a/) | f3 f |\
(e>d) (e/f/)g | (c>d) cf |\
ed (d^c) | d3 :|

